X:1
T:James Gibb editions
T:This joyful Eastertide - Wood
T:#
%%score [ ( 1 2 ) ( 3 4 ) ]
L:1/8
Q:1/4=108
M:4/4
K:G
V:1 treble nm="S A"
V:2 treble 
V:3 bass nm="T B"
V:4 bass 
V:1
"^This joyful Eastertide""^G. R. Woodward\n(1848-1934)""^Dutch Carol (arr. Charles Wood)\n(1866-1926)" D2 | %1
 G2 A2 B2 c2 | d6 d2 | e3 d c2 e2 | (d3 c B2 AG | A4) G6 ||[M:4/4] D2 | G2 A2 B2 c2 | d6 d2 | %9
 e3 d c2 e2 | (d3 c B2 AG | A4) G6 ||!p! G2 | A2 B2 c2 B2 | A3 B c2 d2 | e2 d2 (d2 ^c2) | d6 d2 | %17
 c2 c2 B2 B2 | A6"^cresc." G2 |"^sempre" F2 G2 A2 B2 | c4 A2 A2 | d4 B2 B2 | e4 d2 d2 | %23
 (g3 f e2 dc | B2 AG A4) | G6 |] %26
V:2
 D2 | D2 (E F) G2 G2 | (G2 FE F2) G2 | G2 G2 E2 E2 | (A4 G2 D2 | E2 F2) D6 ||[M:4/4] D2 | %7
w: ~~~~This|joy- ful * Ea- ster-|tide, * * * a-|way with sin and|sor\- * *|* * row!|My|
w: ~~~~My|flesh in * hope shall|rest, * * * and|for a sea- son|slum\- * *|* * ber:|Till|
w: ~~~~Death's|flood hath * lost his|chill, * * * since|Je- sus cross'd the|ri\- * *|* * ver:|Lo-|
 D2 (E F) G2 G2 | (G2 FE F2) G2 | G2 G2 E2 E2 | (A4 G2 D2 | E2 F2) D6 || D2 | D2 D2 E2 (D E) | %14
w: love, the * cru- ci-|fied, * * * hath|sprung to life this|mor\- * *|* * row.|||
w: trump from * east to|west * * * shall|wake the dead in|num\- * *|* * ber.|||
w: ver of * souls, from|ill * * * my|pass- ing soul de-|li\- * *|* * ver.|||
 F3 G G2 =F2 | E2 G2 E4 | F6 D2 | E3 F (^G F) G2 | E6 D2 | D3 ^C D2 D2 | E4 D2 D2 | F4 E2 E2 | %22
w: ||||||||
w: ||||||||
w: ||||||||
 G4 (AG) F2 | (G6 A2 | D4 E2 F2) | D6 |] %26
w: ||||
w: ||||
w: ||||
V:3
 B,2 | D2 C2 B,2 G,2 | A,6 B,2 | C2 B,2 C2 (CB,) | (A,2 D4 B,2 | CB, A,2) B,6 ||[M:4/4] B,2 | %7
w: |||||||
 D2 C2 B,2 G,2 | A,6 B,2 | C2 B,2 C2 (CB,) | (A,2 D4 B,2 | CB, A,2) B,6 || B,2 | %13
w: |||||Had|
 A,2 G,2 (G,A,) (B, C) | D3 D (CG,) (A, B,) | C2 B,2 A,4 | A,6 B,2 | B,2 A,2 E3 D | C6 B,2 | %19
w: Christ, that once * was *|slain, ne'er burst * his *|three- day pri\-\_|son, our|faith had been in|vain: but|
 A,2 G,2 F,2 G,2 | (G,2 A,G,) F,2 A,2 | (A,2 B,A,) G,2 B,2 | (B,2 CB,) A,2 D2 | (D2 B,2 C B, A,2 | %24
w: now hath Christ a-|ris\- * * en, a-|ris\- * * en, a-|ris\- * * en, a-|ris\- * * * *|
 B,2 D2 CB, A,2) | B,6 |] %26
w: |en.|
V:4
 G,2 | B,2 A,2 (G, F,) E,2 | D,6 G,2 | C2 G,2 A,2 (A,G,) | (F,4 G,4 | C,2 D,2) G,6 ||[M:4/4] G,2 | %7
 B,2 A,2 (G, F,) E,2 | D,6 G,2 | C2 G,2 A,2 (A,G,) | (F,4 G,4 | C,2 D,2) G,6 || G,2 | %13
 F,2 G,2 (E,F,) G,2 | D,3 G, E,2 D,2 | C,2 G,2 A,4 | D,6 B,,2 | C,3 D, E,2 E,2 | A,,6 (B,, C,) | %19
 D,2 E,2 D,2 G,2 | C,4 (D,E,) (F, E,) | D,4 (E,F,) (G, F,) | E,4 F,2 (DC) | (B,A, G,2 C2 F,2 | %24
 G,2 B,,2 C,2 D,2) | G,,6 |] %26

